X:60
T:Cup of Tea
Z: id:dc-reel-54
M:C
L:1/8
K:E Dorian
A|BAGF GEEF|GEBE GEEA|BAGF GEEG|FDAG FDDA|!
BAGF GEEF|GEBE GEEA|BAGF GABc|dBAG FDD:|!
A|d2eg fdec|d2eg fBBc|d2eg fdec|dBAG FDDA|!
d2eg fdec|dfaf g2fg|afge fdec|dBAG FDD:|!
G|FAdA FABA|FAdA FEEG|FAdA FABc|dBAG FDDG|!
FAdA FABA|FAdA FEEe|f2ec dBAF|GBAG FDD:|!

